X:1
T:O pray for the peace of Jerusalem
T:O pray for the peace of Jerusalem (John Broderip)
C:John Broderip
Z:p19, A Second Book of New
Z:Anthems and Psalm Tunes,
Z:London: [1749]
%%score [ ( 1 2 ) 3 4 5 ]
L:1/8
M:4/4
K:Emin
V:1 treble nm="[Treble]"
V:2 treble 
V:3 treble nm="[Alto]"
V:4 treble-8 transpose=-12 nm="[Tenor]"
V:5 bass nm="[Bass]"
V:1
"^Slow Vers." z4 G4 | B8 | e8 | ^d8 | e4 e2 d2 | c4 B2 A2 | G2 F2 E4 | ^d8 | z4 e4 | ^d8 | %10
w: O|pray,|O|pray,|pray for the|peace of Je-|ru- sa- lem.|Pray,|O|pray,|
 d4 d2 e2 | ^c4 =c4 | (B2 ^d2 e4- | e4) d2 d2 | (d4 ^c3) B | B4 z4 | (e2 d2) ^c2 B2 | ^A4 B2 B2 | %18
w: pray for the|peace, the|peace _ _|_ of Je-|ru- * sa-|lem.|Pray _ for the|peace of Je-|
 B4 ^A4 |[M:3/2]"^BriskCho." B4 z4 z4 | z12 | z12 | z12 | z12 | z12 | z4 B4 c4 | %26
w: ru- sa-|lem.||||||They shall|
 d4 (c2 B2) (c2 A2) | B4 G4 e4 | (c2 B2) A4 f4 | (^d2 ^c2) B4 d4 | (e6 d2 c2 B2 | c12 | d12 | B12 | %34
w: pros- per _ that _|love thee, shall|pros- * per, shall|pros- * per, shall|pros- * * *||||
 c12 | A4) A4 d2 c2 | B4 B4 A4 | B4 G4 d2 c2 | B4 B4 A4 | B4 !fermata!G4 ||"^SlowVers." B4 | %41
w: |* per, they shall|pros- per that|love thee, they shall|pros- per that|love thee.|O|
[M:4/4] B8 | z4 B4 | d8 | e8 | ^G4 G2 G2 | ^G8 | e4 d2 c2 | B4 c2 c2 | (c4 TB3) A | A8 | e4 d2 c2 | %52
w: pray,|O|pray,|pray,|pray for the|peace,|pray for the|peace of Je-|ru- * sa-|lem.|Pray for the|
 B8 | c4 c4 | c4 (TB3 A) |[M:3/2]"^[Brisk]" A4 z4 z4 | z12 | z12 | z12 | z12 | z12 | z4 B4 c4 | %62
w: peace|of Je-|ru- sa- *|lem.||||||They shall|
 d4 (c2 B2) (c2 A2) | B4 G4 e4 | (c2 B2) A4 f4 | (^d2 ^c2) B4 d4 | (e6 d2 c2 B2 | c12 | d12 | %69
w: pros- per _ that _|love thee, shall|pros- * per, shall|pros- * per, shall|pros- * * *|||
 B12- | B4 A2 G2 F2 E2 | ^d2 ^c2) B4 z4 | e8 d4 | c4 B4 A4 | (G2 F2) E4 z4 | e8 d4 | c4 B4 A4 | %77
w: ||* * per,|they shall|pros- per that|love _ thee,|they shall|pros- per that|
 (G2 F2) E4 !fermata!z4 ||[M:4/4]"^SlowVerse [2 trebles and alto]" B8- | B4 B2 B2 | B4 c4 | A8 | %82
w: love _ thee.|Peace|_ be with-|in these|walls,|
 d4 z4 | c4 c2 c2 | B4 A4 | B4 e4 | d4 ^c4 | d4 || z4 | z8 | z8 | z8 | z8 | z8 | z8 | z8 | z8 | %97
w: peace,|peace be with-|in these|walls, with-|in these|walls:||||||||||
 z8 | z8 | z8 | z8 | z4 ||"^Slow" d4- | d4 d2 d2 | ^d4 e4 | (c4 B4) | z8 | z8 | z8 | z4 || %110
w: |||||Peace|_ be with-|in these|walls: _|||||
"^Brisk" ^d4 | e2 e2 e2 ^c2 | d2 d2 d2 B2 | c2 B2 A2 G2 | F4 G4 | (G4 F3) E | E4 z4 | z8 | z8 | %119
w: and|plen- teous- ness, and|plen- teous- ness, and|plen- teous- ness with-|in thy|pa- * la-|ces,|||
 z8 | z8 | z8 | z8 ||[K:E][M:2/2]"^Cho." z4 G2 A2 | B4 B4 | e4 B4 | c4 d4 | e4 G2 G2 | F4 B4 | %129
w: ||||For my|breth- ren|and com-|pan- ions’|sake, I will|wish thee,|
 z4 e2 e2 | d4 B4 | B4 B4 | (c8 | d4) e2 d2 | (d4 c3) B | B8 | z4 d2 d2 | e4 =d4 | c4 c4 | c4 B4 | %140
w: I will|wish thee,|I will|wish|_ thee pros-|pe- * ri-|ty.|For my|breth- ren|and com-|pan- ions’|
 c8 | z4 c2 c2 | A4 F4 | z4 B2 A2 | G4 E4 | z4 c2 c2 | A4 F4 | z4 B2 A2 | G4 E4 | d4 e4 | %150
w: sake,|I will|wish thee,|I will|wish thee,|I will|wish thee,|I will|wish thee,|I will|
 c4 B2 A2 | G4 G2 A2 | (G4 F3) E | E8 | d4 e4 | c4 B2 A2 | G4 G2 A2 | (G4 F3) E | !fermata!E4 || %159
w: wish thee, will|wish thee pros-|pe- * ri-|ty.|I will|wish thee, will|wish thee pros-|pe- * ri-|ty.|
[K:Emin]"^Slow" G4 | B8 | e8 | ^d8 | e4 d2 c2 | B8 | B4 A2 G2 | F8 | B4 B2 B2 | (B2 A2) A2 A2 | %169
w: O|pray,|O|pray,|pray for the|peace,|pray for the|peace,|pray for the|peace _ of Je-|
 (G4 F3) E | E8 | c4 A2 G2 | F4 G2 G2 | (G4 F3) E | E8 |] %175
w: ru- * sa-|lem.|Pray for the|peace of Je-|ru- * sa-|lem.|
V:2
 x8 | x8 | x8 | x8 | x8 | x8 | x8 | x8 | x8 | x8 | x8 | x8 | x8 | x8 | x8 | x8 | x8 | x8 | x8 | %19
[M:3/2] x12 | x12 | x12 | x12 | x12 | x12 | x12 | x12 | x12 | x12 | x12 | x12 | x12 | x12 | x12 | %34
 x12 | x12 | x12 | x12 | x12 | x8 || x4 |[M:4/4] x8 | x8 | x8 | x8 | x8 | x8 | x8 | x8 | x8 | x8 | %51
 x8 | x8 | x8 | x8 |[M:3/2] x12 | x12 | x12 | x12 | x12 | x12 | x12 | x12 | x12 | x12 | x12 | x12 | %67
 x12 | x12 | x12 | x12 | x12 | x12 | x12 | x12 | x12 | x12 | x12 ||[M:4/4] G8- | G4 G2 G2 | %80
 G4 (A2 G2) | F8 | G4 z4 | A4 A2 A2 | G4 F4 | G4 B4 | A4 G4 | F4 || x4 | x8 | x8 | x8 | x8 | x8 | %94
 x8 | x8 | x8 | x8 | x8 | x8 | x8 | x4 || B4- | B4 B2 B2 | A4 G4 | F8 | x8 | x8 | x8 | x4 || B4 | %111
 G2 G2 G2 A2 | F2 F2 F2 G2 | E2 E2 F2 E2 | ^D4 E4 | E4 ^D4 | E4 z4 | x8 | x8 | x8 | x8 | x8 | x8 || %123
[K:E][M:2/2] x8 | x8 | x8 | x8 | x8 | x8 | x8 | x8 | x8 | x8 | x8 | x8 | x8 | x8 | x8 | x8 | x8 | %140
 x8 | x8 | x8 | x8 | x8 | x8 | x8 | x8 | x8 | x8 | x8 | x8 | x8 | x8 | x8 | x8 | x8 | x8 | x4 || %159
[K:Emin] x4 | x8 | x8 | x8 | x8 | x8 | x8 | x8 | x8 | x8 | x8 | x8 | x8 | x8 | x8 | x8 |] %175
V:3
 z4 E4 | (G4 F4) | E8 | F8 | E4 E2 E2 | E4 G2 F2 | E2 ^D2 E4 | F8 | z4 G4 | F8 | F4 E2 E2 | %11
w: O|pray, _|O|pray,|pray for the|peace of Je-|ru- sa- lem.|Pray,|O|pray,|pray for the|
 (E4- EGFE | ^D2 B,2 E2 =D2 | ^C4) F2 F2 | F4 F4 | F4 z4 | G4 G2 G2 | F4 F2 F2 | F4 F4 | %19
w: peace _ _ _ _|_ _ _ _|* of Je-|ru- sa-|lem.|Pray for the|peace of Je-|ru- sa-|
[M:3/2] F4 z4 z4 | z12 | z12 | z12 | z4 E4 F4 | G4 (F2 E2) (D2 C2) | (B,2 C2) D4 z4 | z4 z4 F2 F2 | %27
w: lem.||||They shall|pros- per _ that _|love _ thee.|They shall|
 G4 D4 ^G2 G2 | A4 E4 z4 | z12 | G8 G4 | (A6 G2 F2 E2 | F12 | G6 F2 E2 ^D2 | E12 | A,4) A,4 F2 F2 | %36
w: pros- per, they shall|pros- per,||They shall|pros- * * *||||* per, they shall|
 G4 G4 F4 | G4 D4 F2 F2 | G4 G4 F4 | G4 !fermata!D4 || D4 |[M:4/4] D8 | z4 D4 | D8 | B,8 | %45
w: pros- per that|love thee, they shall|pros- per that|love thee.|O|pray,|O|pray,|pray,|
 E4 E2 E2 | E8 | E4 =F2 F2 | E4 E2 E2 | E6 E2 | E8 | E4 =F2 F2 | E8 | E4 E4 | E6 E2 | %55
w: pray for the|peace,|pray for the|peace of Je-|ru- sa-|lem.|Pray for the|peace|of Je-|ru- sa-|
[M:3/2] E4 z4 z4 | z12 | z12 | z12 | z4 E4 F4 | G4 (F2 E2) (D2 C2) | (B,2 C2) D4 z4 | z4 z4 F2 F2 | %63
w: lem.||||They shall|pros- per _ that _|love _ thee.|They shall|
 G4 D4 ^G4 | A4 E4 z4 | z12 | G8 G4 | (A6 G2 F2 E2 | F12 | G6 F2 E2 ^D2 | E12 | ^D4) D4 z4 | %72
w: pros- per, shall|pros- per.||They shall|pros- * * *||||* per,|
 E8 E4 | E4 G4 F4 | E4 E4 z4 | E8 E4 | F4 E4 ^D4 | E4 E4 !fermata!z4 ||[M:4/4] E8- | E4 E2 E2 | %80
w: they shall|pros- per that|love thee,|they shall|pros- per that|love thee.|Peace|_ be with-|
 E4 C4 | D8 | B,4 z4 | C4 C2 C2 | D4 D4 | G,4 G4 | F4 E4 | D4 || %88
w: in these|walls,|peace,|peace be with-|in these|walls, with-|in these|walls:|
"^Brisk [alto, tenor and bass]" z4 | z8 | z8 | z4 A,4 | B,2 ^C2 D2 E2 | F4 (E2 D2) | %94
w: |||And|plen- teous- ness with-|in thy _|
 ^C2 B,2 A,2 E2 | E4 D4 | (D4 ^C3) B, | B,4 F4 | G2 F2 E2 D2 | ^C4 D4 | (D4 ^C3) B, | %101
w: pa- la- ces, with-|in thy|pa- * la-|ces, and|plen- teous- ness with-|in thy|pa- * la-|
 !fermata!B,4 || G4- | G4 G2 G2 | F4 E4 | ^D8 | z4 (B,4 | C4) B,2 B,2 | E6 F2 | ^D4 || B,4 | %111
w: ces.|Peace|_ be with-|in these|walls,|peace|_ be with-|in these|walls:|and|
 E2 E2 E2 A,2 | D2 D2 D2 G,2 | A,2 A,2 A,2 A,2 | B,4 E4 | B,6 B,2 | E4 ^D4 | E2 E2 E2 ^C2 | %118
w: plen- teous- ness, and|plen- teous- ness, and|plen- teous- ness with-|in thy|pa- la-|ces, and|plen- teous- ness, and|
 D2 D2 D2 B,2 | C2 B,2 A,2 G,2 | F,4 G,4 | (G,4 F,3) E, | E,8 ||[K:E][M:2/2] z8 | z4 E2 E2 | %125
w: plen- teous- ness, and|plen- teous- ness with-|in thy|pa- * la-|ces.||For my|
 E4 E4 | F4 F4 | B,4 E4 | D4 D2 D2 | E4 E4 | z4 D2 D2 | E8- | E8 | F4 G4 | F6 E2 | D8 | z4 F2 F2 | %137
w: breth- ren|and com-|pan- ions’|sake, I will|wish thee,|I will|wish|_|thee pros-|pe- ri-|ty.|For my|
 E4 E4 | E4 E4 | F4 F4 | ^E8 | z4 ^E2 E2 | F4 F4 | z4 D2 D2 | E4 E4 | z4 ^E2 E2 | F4 F4 | %147
w: breth- ren|and com-|pan- ions’|sake,|I will|wish thee,|I will|wish thee,|I will|wish thee,|
 z4 D2 D2 | E4 E4 | F4 E4 | E4 F2 F2 | E4 E2 F2 | E4 D4 | E8 | F4 E4 | E4 F2 F2 | E4 E2 F2 | %157
w: I will|wish thee,|I will|wish thee, will|wish thee pros-|pe- ri-|ty.|I will|wish thee, will|wish thee pros-|
 E4 D4 | !fermata!E4 ||[K:Emin] E4 | (G4 F4) | E8 | F8 | G4 D2 D2 | D8 | G4 F2 E2 | ^D8 | %167
w: pe- ri-|ty.|O|pray, _|O|pray,|pray for the|peace,|pray for the|peace,|
 E4 E2 E2 | E4 F2 E2 | E4 ^D4 | E8 | E4 F2 E2 | ^D4 E2 E2 | E4 ^D4 | E8 |] %175
w: pray for the|peace of Je-|ru- sa-|lem.|Pray for the|peace of Je-|ru- sa-|lem.|
V:4
 z4 B4 | B8 | A8 | B8 | B4 B2 e2 | e4 B2 B2 | B2 B2 B4 | B8 | z4 B4 | B8 | B4 B2 B2 | A6 A2 | (B8 | %13
w: O|pray,|O|pray,|pray for the|peace of Je-|ru- sa- lem.|Pray,|O|pray,|pray for the|peace, the|peace|
 ^A4) B2 B2 | B4 ^A4 | B4 z4 | B4 e2 d2 | ^c4 d2 d2 | (d4 ^c3) B |[M:3/2] B4 B4 c4 | %20
w: _ of Je-|ru- sa-|lem.|Pray for the|peace of Je-|ru- * sa-|lem. They shall|
 d4 (c2 B2) (c2 A2) | B4 G4 e4 | (e4 ^d8 | e4) B4 z4 | z12 | z4 G4 A4 | B4 c4 d4 | d4 B4 B2 B2 | %28
w: pros- per _ that _|love thee, that|love _|_ thee.||They shall|pros- per that|love thee, they shall|
 c4 c4 A2 A2 | (B12- | B12 | A12 | d6 c2 B2 A2 | G12 | c6 B2 A2 G2 | F4) F4 d2 d2 | d4 d4 d4 | %37
w: pros- per, they shall|pros-||||||* per, they shall|pros- per that|
 d4 B4 d2 d2 | d4 d4 d4 | d4 !fermata!B4 || B4 |[M:4/4] B8 | z4 B4 | A8 | ^G8 | B4 B2 B2 | B8 | %47
w: love thee, they shall|pros- per that|love thee.|O|pray,|O|pray,|pray,|pray for the|peace,|
 A4 B2 A2 | ^G4 A2 A2 | A4 ^G4 | A8 | A4 B2 A2 | ^G8 | A4 A4 | A4 ^G4 |[M:3/2] A4 A4 B4 | %56
w: pray for the|peace of Je-|ru- sa-|lem.|Pray for the|peace|of Je-|ru- sa-|lem. They shall|
 c4 (c2 B2) (c2 A2) | (B4 e8- | e4 ^d8 | e4) B4 z4 | z12 | z4 G4 A4 | B4 c4 d4 | d4 B4 B4 | %64
w: pros- per _ that _|love _|_ _|* thee.||They shall|pros- per that|love thee, shall|
 c4 c4 z4 | B8 B4 | (B12 | A12 | d6 c2 B2 A2 | G12 | c8 A4 | B4) B4 z4 | B8 ^G4 | e4 e4 B4 | %74
w: pros- per.|They shall|pros-|||||* per,|they shall|pros- per that|
 B4 B4 z4 | B8 ^G4 | e4 e4 B4 | B4 B4 !fermata!z4 ||[M:4/4] z8 | z8 | z8 | z8 | z8 | z8 | z8 | z8 | %86
w: love thee,|they shall|pros- per that|love thee.|||||||||
 z8 | z4 || D4 | E2 F2 G2 A2 | B4 (A2 G2) | F2 E2 D2 F2 | G4 (F2 E2) | D4 E4 | A4 z4 | z8 | %96
w: ||And|plen- teous- ness with-|in thy _|pa- la- ces, with-|in thy _|pa- la-|ces,||
 B4 ^A2 A2 | B4 d4 | e2 d2 ^c2 B2 | ^A4 B4 | B4 ^A4 | !fermata!B4 || z4 | z8 | z8 | z8 | z4 G4- | %107
w: and plen- teous-|ness, and|plen- teous- ness with-|in thy|pa- la-|ces.|||||Peace|
 G4 F2 F2 | B4 A4 | B4 || z4 | z8 | z8 | z8 | z8 | z8 | z4 B4 | G2 G2 G2 A2 | F2 F2 F2 G2 | %119
w: _ be with-|in these|walls:|||||||and|plen- teous- ness, and|plen- teous- ness, and|
 E2 E2 F2 E2 | ^D4 E4 | E4 ^D4 | E8 ||[K:E][M:2/2] z4 E2 F2 | G4 (G2 A2) | B4 B4 | A4 B4 | %127
w: plen- teous- ness with-|in thy|pa- la-|ces.|For my|breth- ren _|and com-|pan- ions’|
 E4 B2 B2 | B4 B4 | z4 B2 B2 | B4 B4 | B4 G4 | ^A4 A2 A2 | B4 c2 c2 | B4 ^A4 | B8 | z4 B2 B2 | %137
w: sake, I will|wish thee,|I will|wish thee,|I will|wish thee, will|wish thee pros-|pe- ri-|ty.|For my|
 B4 B4 | A4 A4 | A4 F4 | G8 | z4 G2 G2 | A4 A4 | z4 F2 F2 | G4 G4 | z4 G2 G2 | A4 A4 | z4 F2 F2 | %148
w: breth- ren|and com-|pan- ions’|sake,|I will|wish thee,|I will|wish thee,|I will|wish thee,|I will|
 G4 G4 | B4 B4 | A4 A2 B2 | B4 c2 c2 | B4 A4 | G8 | B4 B4 | A4 A2 B2 | B4 c2 c2 | B4 A4 | %158
w: wish thee,|I will|wish thee, will|wish thee pros-|pe- ri-|ty.|I will|wish thee, will|wish thee pros-|pe- ri-|
 !fermata!G4 ||[K:Emin] B4 | B8 | A8 | B8 | B4 A2 A2 | G8 | e4 c2 c2 | B8 | d4 d2 d2 | c4 c2 c2 | %169
w: ty.|O|pray,|O|pray,|pray for the|peace,|pray for the|peace,|pray for the|peace of Je-|
 B6 B2 | B8 | A4 A2 A2 | B4 B2 B2 | B6 B2 | B8 |] %175
w: ru- sa-|lem.|Pray for the|peace of Je-|ru- sa-|lem.|
V:5
 z4 E,4 | (E,4 D,4) | C,8 | B,,8 | G,4 ^G,2 G,2 | A,4 B,2 B,,2 | E,2 E,2 E,4 | B,8 | z4 E,4 | %9
w: O|pray, _|O|pray,|pray for the|peace of Je-|ru- sa- lem.|Pray,|O|
 B,,8 | B,4 ^G,2 G,2 | (A,8- | A,4 G,2 E,2 | F,4) D,2 B,,2 | F,6 F,2 | B,,4 z4 | G,4 E,2 E,2 | %17
w: pray,|pray for the|peace,|_ _ _|* of Je-|ru- sa-|lem.|Pray for the|
 F,4 B,,2 B,,2 | F,,6 F,,2 |[M:3/2] B,,4 z4 z4 | z12 | z4 G,4 A,4 | B,4 (A,2 G,2) (A,2 F,2) | %23
w: peace of Je-|ru- sa-|lem.||They shall|pros- per _ that _|
 G,4 E,4 E,4 | (E,4 F,8 | G,4) G,,4 z4 | z4 z4 D,2 D,2 | G,4 G,4 E,2 E,2 | A,4 A,4 F,2 F,2 | %29
w: love thee, that|love _|_ thee.|They shall|pros- per, they shall|pros- per, they shall|
 (B,6 A,2 G,2 F,2 | E,12 | A,12 | D,12 | G,12 | C,12 | D,4) D,4 F,2 D,2 | G,4 B,,4 D,4 | %37
w: pros- * * *||||||* per, they shall|pros- per that|
 G,,4 G,,4 F,2 D,2 | G,4 B,,4 D,4 | G,,4 !fermata!G,,4 || G,4 |[M:4/4] G,8 | z4 G,4 | =F,8 | E,8 | %45
w: love thee, they shall|pros- per that|love thee.|O|pray,|O|pray,|pray,|
 D,4 D,2 D,2 | D,8 | C,4 D,2 D,2 | E,4 A,,2 A,,2 | E,6 E,2 | A,,8 | C,4 D,2 D,2 | E,8 | A,,4 A,,4 | %54
w: pray for the|peace,|pray for the|peace of Je-|ru- sa-|lem.|Pray for the|peace|of Je-|
 E,6 E,2 |[M:3/2] A,,4 z4 z4 | z12 | z4 G,4 A,4 | B,4 (A,2 G,2) (A,2 F,2) | G,4 G,4 E,4 | %60
w: ru- sa-|lem.||They shall|pros- per _ that _|love thee, that|
 (E,4 F,8 | G,4) G,,4 z4 | z4 z4 D,2 D,2 | G,4 G,4 E,4 | A,4 A,4 F,4 | (B,6 A,2 G,2 F,2 | E,12 | %67
w: love _|_ thee.|They shall|pros- per, shall|pros- per, shall|pros- * * *||
 A,12 | D,12 | G,12 | C,12 | B,,4) B,,4 z4 | G,8 E,4 | A,4 B,4 B,,4 | E,4 E,4 z4 | G,8 E,4 | %76
w: ||||* per,|they shall|pros- per that|love thee,|they shall|
 A,,4 B,,4 B,,4 | E,4 E,4 !fermata!z4 ||[M:4/4] z8 | z8 | z8 | z8 | z8 | z8 | z8 | z8 | z8 | z4 || %88
w: pros- per that|love thee.|||||||||||
 z4 | z8 | z8 | z8 | z8 | z8 | z4 A,,4 | B,,2 ^C,2 D,2 E,2 | F,4 F,,4 | B,,2 B,,2 B,,2 B,,2 | %98
w: ||||||And|plen- teous- ness with-|in thy|pa- la- ces, and|
 E,2 E,2 E,2 E,2 | F,4 B,,4 | F,,6 F,,2 | !fermata!B,,4 || z4 | z8 | z8 | z8 | z4 E,4- | %107
w: plen- teous- ness with-|in thy|pa- la-|ces.|||||Peace|
 E,4 D,2 D,2 | C,4 C,4 | B,,4 || z4 | z8 | z8 | z8 | z8 | z8 | z4 B,,4 | E,2 E,2 E,2 A,,2 | %118
w: _ be with-|in these|walls:|||||||and|plen- teous- ness, and|
 D,2 D,2 D,2 G,,2 | A,,2 A,,2 A,,2 A,,2 | B,,4 E,4 | B,,6 B,,2 | E,,8 ||[K:E][M:2/2] z8 | %124
w: plen- teous- ness, and|plen- teous- ness with-|in thy|pa- la-|ces.||
 z4 E,2 F,2 | G,4 G,4 | F,4 B,4 | G,4 E,4 | B,,4 B,2 A,2 | G,4 E,4 | z4 B,2 A,2 | %131
w: For my|breth- ren|and com-|pan- ions’|sake, I will|wish thee,|I will|
 (G,2 F,2 E,2 D,2) | C,4 F,2 F,2 | B,4 E,2 E,2 | F,4 F,,4 | B,,8 | z4 B,2 A,2 | G,4 E,4 | A,4 C,4 | %139
w: wish _ _ _|thee, I will|wish thee pros-|pe- ri-|ty.|For my|breth- ren|and com-|
 =D,4 D,4 | C,8 | z4 C,2 C,2 | F,4 F,4 | z4 B,,2 B,,2 | E,4 E,4 | z4 C,2 C,2 | F,4 F,4 | %147
w: pan- ions’|sake,|I will|wish thee,|I will|wish thee,|I will|wish thee,|
 z4 B,,2 B,,2 | E,4 E,4 | B,4 G,4 | A,4 D,2 D,2 | E,4 A,,2 A,,2 | B,,6 B,,2 | E,8 | B,4 G,4 | %155
w: I will|wish thee,|I will|wish thee, will|wish thee pros-|pe- ri-|ty.|I will|
 A,4 D,2 D,2 | E,4 A,,2 A,,2 | B,,6 B,,2 | !fermata!E,4 ||[K:Emin] E,4 | (E,4 D,4) | C,8 | B,,8 | %163
w: wish thee, will|wish thee pros-|pe- ri-|ty.|O|pray, _|O|pray,|
 E,4 F,2 F,2 | G,8 | G,4 A,2 A,2 | B,8 | ^G,4 G,2 G,2 | %168
w: pray for the|peace,|pray for the|peace,|pray for the|
"^Original clefs treble, alto, tenor, bass. Verse sections with two trebles and alto (as at bar 79) are given on threeseparate staves in the source, with the first two having treble clefs and the third an alto clef." A,4 A,,2 A,,2 | %169
w: peace of Je-|
 B,,6 B,,2 | E,8 | A,,4 A,,2 A,,2 | A,,4 G,,2 A,,2 | B,,6 B,,2 | E,8 |] %175
w: ru- sa-|lem.|Pray for the|peace of Je-|ru- sa-|lem.|

